X:32
T:How Imperfect is Expression
N:page 20 on manuscript
M:2/4
L:1/8
K:F
c3 c | (dc)(B>A) | A3 A | (BA)(GF) | F>AA>c | c2 d>c | c(d/c/) BA | (A>F) G2 | c3 c | (dc)(BA) |
A3 A | BAGF | F>AA>c | c2 d>B | c>AG>A | F4 :||: G3 G | (AG) G2 | A2 BA | TG2 F2 | F>AA>c |
c2 {e}dc | c(d/c/) BA | A>FG>c | c3 c | (dc)(BA) | A3 A | (BA)(GF) | F>AA>c | c2 d>B | c>AG>A | F4 :||
